X:1076
T:Jack Loughlin
R:double jig
N:"collected by Mahony"
B:O'Neill's 1076
Z:Transcribed by henrik.norbeck@mailbox.swipnet.se
M:6/8
L:1/8
K:A
d/B/|AGF G2E|EFE EFG|A2B c2d|efg a2f|
agfe dcd|eaf g2f|edc dBG|B2A A2:|
3e/f/g/|aba gfe|dgf efg|aba gfe|dBA G2A/B/|
dcBc dcd|eaf g2f|edc dBG|B2A A2:|
